img/icons/experience/ts.svg

<svg width="33" height="33" viewBox="0 0 33 33" fill="none" xmlns="http://www.w3.org/2000/svg">
<g clip-path="url(#clip0_343_770)">
<mask id="mask0_343_770" style="mask-type:luminance" maskUnits="userSpaceOnUse" x="0" y="0" width="33" height="33">
<path d="M0 0H33V33H0V0Z" fill="white"/>
</mask>
<g mask="url(#mask0_343_770)">
<path d="M32.2149 1.20624e-06H0.783751C0.575761 0.000365462 0.376415 0.0832445 0.229473 0.230445C0.0825304 0.377645 8.89408e-07 0.577136 1.20837e-06 0.785126V32.2163C-0.000179925 32.3194 0.0200043 32.4216 0.0593964 32.5169C0.0987884 32.6123 0.156613 32.6989 0.229555 32.7718C0.302497 32.8448 0.38912 32.9026 0.484458 32.942C0.579795 32.9814 0.681971 33.0016 0.785126 33.0014H32.2163C32.3194 33.0014 32.4214 32.9811 32.5167 32.9416C32.612 32.9022 32.6985 32.8443 32.7714 32.7714C32.8443 32.6985 32.9022 32.612 32.9416 32.5167C32.9811 32.4214 33.0014 32.3194 33.0014 32.2163V0.783751C33.0012 0.680647 32.9807 0.578588 32.9411 0.483401C32.9015 0.388215 32.8435 0.301764 32.7704 0.228986C32.6974 0.156208 32.6108 0.0985281 32.5154 0.0592388C32.4201 0.0199494 32.318 -0.00017952 32.2149 1.20624e-06ZM19.6433 17.6358H15.7149V29.8568H12.5716V17.6358H8.64325V14.9284H19.6433V17.6358ZM20.5233 29.1582V25.8926C20.5233 25.8926 22.308 27.2374 24.4489 27.2374C26.5898 27.2374 26.5072 25.8376 26.5072 25.6451C26.5072 23.6142 20.4408 23.6143 20.4408 19.1125C20.4408 12.991 29.2806 15.4069 29.2806 15.4069L29.1706 18.3164C29.1706 18.3164 27.6884 17.3278 26.0136 17.3278C24.3389 17.3278 23.7352 18.1253 23.7352 18.975C23.7352 21.1709 29.8568 20.9522 29.8568 25.3715C29.8568 32.1777 20.5233 29.1596 20.5233 29.1596V29.1582Z" fill="#D6BD96"/>
</g>
</g>
<defs>
<clipPath id="clip0_343_770">
<rect width="33" height="33" fill="white"/>
</clipPath>
</defs>
</svg>

<svg width="33" height="33" fill="none" xmlns="http://www.w3.org/2000/svg"><g clip-path="url(#a)"><mask id="b" style="mask-type:luminance" maskUnits="userSpaceOnUse" x="0" y="0" width="33" height="33"><path d="M0 0h33v33H0V0Z" fill="#fff"/></mask><g mask="url(#b)"><path d="M32.215 0H.784A.785.785 0 0 0 0 .785v31.431a.783.783 0 0 0 .785.785h31.431a.784.784 0 0 0 .785-.785V.784A.786.786 0 0 0 32.215 0ZM19.643 17.636h-3.928v12.22h-3.143v-12.22H8.643v-2.708h11v2.708Zm.88 11.522v-3.265s1.785 1.344 3.926 1.344c2.14 0 2.058-1.4 2.058-1.592 0-2.03-6.066-2.03-6.066-6.532 0-6.122 8.84-3.706 8.84-3.706l-.11 2.91s-1.483-.99-3.157-.99c-1.675 0-2.279.798-2.279 1.648 0 2.196 6.122 1.977 6.122 6.396 0 6.807-9.334 3.789-9.334 3.789v-.002Z" fill="#D6BD96"/></g></g><defs><clipPath id="a"><path fill="#fff" d="M0 0h33v33H0z"/></clipPath></defs></svg>
